flags/na.svg

<svg width="512" height="512" viewBox="0 0 512 512" fill="none" xmlns="http://www.w3.org/2000/svg">
<path d="M512 0V512H0.00030365L0.015625 0H512Z" fill="var(--flag-palette-dark-green, #496e2d)"/>
<path d="M0 512L-4.47605e-05 4.47605e-05L512 0L0 512Z" fill="var(--flag-palette-blue, #0052b4)"/>
<path d="M512 112V0H400L0 400V512H112L512 112Z" fill="var(--flag-palette-white, #eeeeee)"/>
<path d="M0 448V512H64L512 64V0H448L0 448Z" fill="var(--flag-palette-dark-red, #a2001d)"/>
<path fill-rule="evenodd" clip-rule="evenodd" d="M117.679 45.7051L128.855 75.9648C125.29 75.0127 121.544 74.5051 117.679 74.5051C113.814 74.5051 110.067 75.0127 106.502 75.9648L117.679 45.7051ZM148.226 87.1581C142.944 81.8767 136.302 77.9565 128.87 75.9687L153.679 55.3512L148.226 87.1581ZM148.226 87.1581L180.033 81.7051L159.415 106.514C157.427 99.0818 153.507 92.4394 148.226 87.1581ZM160.879 117.705C160.879 113.84 160.371 110.094 159.419 106.529L189.679 117.705L159.419 128.882C160.371 125.317 160.879 121.57 160.879 117.705ZM148.226 148.252C153.507 142.971 157.427 136.328 159.415 128.896L180.033 153.705L148.226 148.252ZM148.226 148.252L153.679 180.059L128.87 159.441C136.302 157.454 142.944 153.533 148.226 148.252ZM117.679 160.905C121.544 160.905 125.29 160.398 128.855 159.445L117.679 189.705L106.502 159.445C110.067 160.398 113.814 160.905 117.679 160.905ZM87.1317 148.252C92.413 153.533 99.0554 157.454 106.488 159.441L81.6787 180.059L87.1317 148.252ZM75.9423 128.896C77.9301 136.328 81.8504 142.971 87.1317 148.252L55.3249 153.705L75.9423 128.896ZM74.4787 117.705C74.4787 121.57 74.9863 125.317 75.9384 128.882L45.6787 117.705L75.9384 106.529C74.9863 110.094 74.4787 113.84 74.4787 117.705ZM87.1317 87.1581C81.8504 92.4394 77.9301 99.0818 75.9423 106.514L55.3249 81.7051L87.1317 87.1581ZM106.488 75.9687C99.0554 77.9565 92.413 81.8767 87.1317 87.1581L81.6787 55.3512L106.488 75.9687ZM117.679 153.705C137.561 153.705 153.679 137.587 153.679 117.705C153.679 97.8228 137.561 81.7051 117.679 81.7051C97.7965 81.7051 81.6787 97.8228 81.6787 117.705C81.6787 137.587 97.7965 153.705 117.679 153.705Z" fill="var(--flag-palette-yellow, #ffda44)"/>
</svg>

<svg xmlns="http://www.w3.org/2000/svg" width="512" height="512" fill="none"><path fill="var(--flag-palette-dark-green, #496e2d)" d="M512 0v512H0V0z"/><path fill="var(--flag-palette-blue, #0052b4)" d="M0 512V0h512z"/><path fill="#EEE" d="M512 112V0H400L0 400v112h112z"/><path fill="var(--flag-palette-dark-red, #a2001d)" d="M0 448v64h64L512 64V0h-64z"/><path fill="var(--flag-palette-yellow, #ffda44)" fill-rule="evenodd" d="M117.7 45.7 128.9 76a43 43 0 0 0-22.4 0zm30.5 41.5q-8-8-19.3-11.2l24.8-20.6zm0 0 31.8-5.5-20.6 24.8q-3.1-11.2-11.2-19.3m12.7 30.5q0-5.8-1.5-11.2l30.3 11.2-30.3 11.2q1.5-5.4 1.5-11.2m-12.7 30.6q8-8.1 11.2-19.4l20.6 24.8zm0 0 5.5 31.8-24.8-20.7q11.2-3.2 19.3-11.1m-30.5 12.6q5.8 0 11.2-1.5l-11.2 30.3-11.2-30.3q5.4 1.5 11.2 1.5M87 148.3c5.3 5.2 12 9.2 19.4 11.1l-24.8 20.7zm-11-19.4q3.2 11.2 11.2 19.4l-31.8 5.4zm-1.4-11.2q0 5.8 1.4 11.2l-30.2-11.2L76 106.5q-1.5 5.4-1.4 11.2M87 87.2c-5 5.2-9 11.8-11 19.3L55.3 81.7zM106.5 76Q95.3 79 87 87.2l-5.4-31.8zm11.2 77.7a36 36 0 1 0 0-72 36 36 0 0 0 0 72" clip-rule="evenodd"/></svg>
